X:1
T:Packie's Mother's Jig
M:6/8
L:1/8
Q:3/8=112
S:Eric Reiswig
K:G
ABA AGF|GAG GAB|ABA ABc|BAG AFD|
ABA AGF|GAG GAB|ABc BAG|AFD D3:|
d2d dAF|GAG GAB|d2 d dAF|ABc BAG|
d2d dAF|GAG GAB|ABc BAG|AFD D3:|
